material/.icons/material/fingerprint-off.svg

<svg xmlns="http://www.w3.org/2000/svg" viewBox="0 0 24 24"><path d="M1.5 4.77L2.78 3.5 20.5 21.22l-1.27 1.28-2.56-2.56c-1.09-.04-2.05-.34-2.85-.89-1.48-1-2.36-2.62-2.38-4.34l-1.17-1.18c-.24.32-.38.7-.38 1.12 0 1.71.66 3.31 1.87 4.51.95.94 1.86 1.46 3.27 1.84.27.08.42.36.35.62-.05.23-.26.38-.47.38h-.13c-1.59-.46-2.63-1.05-3.72-2.12a7.28 7.28 0 01-2.17-5.22c0-.69.25-1.33.67-1.83L8.5 11.77c-.72.77-1.16 1.78-1.16 2.89 0 1.44.32 2.77.93 3.84.64 1.16 1.08 1.65 1.85 2.43.19.2.19.51 0 .71-.12.1-.24.15-.37.15s-.25-.05-.35-.15c-.87-.87-1.34-1.43-2.01-2.64-.69-1.23-1.05-2.73-1.05-4.34 0-1.38.55-2.66 1.45-3.6L6.7 9.97c-.55.53-1.01 1.18-1.35 1.89-.39.81-.59 1.76-.59 2.8 0 .78.07 2.01.67 3.61.1.26-.03.55-.29.64a.504.504 0 01-.64-.29c-.5-1.31-.73-2.62-.73-3.96 0-1.2.23-2.29.68-3.24.39-.81.91-1.54 1.55-2.16L4.97 8.24c-.39.39-.75.81-1.08 1.26-.08.15-.23.22-.39.22l-.29-.09a.517.517 0 01-.12-.7c.36-.5.75-.97 1.18-1.4L1.5 4.77m16.31-.3l-.23-.06C15.66 3.42 14 3 12 3c-1.97 0-3.85.47-5.56 1.41l-.15.05-.58-.57c.02-.15.11-.28.25-.36C7.82 2.5 9.86 2 12 2s4 .47 6.04 1.5c.25.15.34.45.21.69a.48.48 0 01-.44.28m-.66 1.18c1.5.77 2.76 1.85 3.75 3.25.16.22.1.54-.12.7-.23.16-.54.11-.7-.1a9.257 9.257 0 00-3.39-2.96c-2.63-1.35-5.93-1.46-8.66-.33l-.76-.76c3.07-1.41 6.87-1.35 9.88.2M12 9.27c3.12 0 5.66 2.42 5.66 5.39a.5.5 0 01-.5.5l-.23-.05-.21-.22-.06-.23c0-2.39-2.04-4.34-4.57-4.39l-.94-.94.85-.06m2.38 8.95c.33.23.69.4 1.09.51l-2.84-2.83c.29.92.9 1.75 1.75 2.32m4.83-3.56c0-3.77-3.25-6.83-7.25-6.83-.7 0-1.38.1-2.03.28l-.81-.81c.88-.3 1.85-.48 2.84-.48 4.54 0 8.25 3.51 8.25 7.83 0 1-.52 1.88-1.32 2.41l-.72-.72c.62-.34 1.04-.96 1.04-1.68z"/></svg>

<?xml version="1.0" encoding="UTF-8"?><!DOCTYPE svg PUBLIC "-//W3C//DTD SVG 1.1//EN" "http://www.w3.org/Graphics/SVG/1.1/DTD/svg11.dtd"><svg xmlns="http://www.w3.org/2000/svg" xmlns:xlink="http://www.w3.org/1999/xlink" version="1.1" id="mdi-fingerprint-off" width="24" height="24" viewBox="0 0 24 24"><path d="M1.5,4.77L2.78,3.5L20.5,21.22L19.23,22.5L16.67,19.94C15.58,19.9 14.62,19.6 13.82,19.05C12.34,18.05 11.46,16.43 11.44,14.71L10.27,13.53C10.03,13.85 9.89,14.23 9.89,14.65C9.89,16.36 10.55,17.96 11.76,19.16C12.71,20.1 13.62,20.62 15.03,21C15.3,21.08 15.45,21.36 15.38,21.62C15.33,21.85 15.12,22 14.91,22H14.78C13.19,21.54 12.15,20.95 11.06,19.88C9.66,18.5 8.89,16.64 8.89,14.66C8.89,13.97 9.14,13.33 9.56,12.83L8.5,11.77C7.78,12.54 7.34,13.55 7.34,14.66C7.34,16.1 7.66,17.43 8.27,18.5C8.91,19.66 9.35,20.15 10.12,20.93C10.31,21.13 10.31,21.44 10.12,21.64C10,21.74 9.88,21.79 9.75,21.79C9.62,21.79 9.5,21.74 9.4,21.64C8.53,20.77 8.06,20.21 7.39,19C6.7,17.77 6.34,16.27 6.34,14.66C6.34,13.28 6.89,12 7.79,11.06L6.7,9.97C6.15,10.5 5.69,11.15 5.35,11.86C4.96,12.67 4.76,13.62 4.76,14.66C4.76,15.44 4.83,16.67 5.43,18.27C5.53,18.53 5.4,18.82 5.14,18.91C4.88,19 4.59,18.87 4.5,18.62C4,17.31 3.77,16 3.77,14.66C3.77,13.46 4,12.37 4.45,11.42C4.84,10.61 5.36,9.88 6,9.26L4.97,8.24C4.58,8.63 4.22,9.05 3.89,9.5C3.81,9.65 3.66,9.72 3.5,9.72L3.21,9.63C3,9.47 2.93,9.16 3.09,8.93C3.45,8.43 3.84,7.96 4.27,7.53L1.5,4.77M17.81,4.47L17.58,4.41C15.66,3.42 14,3 12,3C10.03,3 8.15,3.47 6.44,4.41L6.29,4.46L5.71,3.89C5.73,3.74 5.82,3.61 5.96,3.53C7.82,2.5 9.86,2 12,2C14.14,2 16,2.47 18.04,3.5C18.29,3.65 18.38,3.95 18.25,4.19C18.16,4.37 18,4.47 17.81,4.47M17.15,5.65C18.65,6.42 19.91,7.5 20.9,8.9C21.06,9.12 21,9.44 20.78,9.6C20.55,9.76 20.24,9.71 20.08,9.5C19.18,8.22 18.04,7.23 16.69,6.54C14.06,5.19 10.76,5.08 8.03,6.21L7.27,5.45C10.34,4.04 14.14,4.1 17.15,5.65M12,9.27C15.12,9.27 17.66,11.69 17.66,14.66A0.5,0.5 0 0,1 17.16,15.16L16.93,15.11L16.72,14.89L16.66,14.66C16.66,12.27 14.62,10.32 12.09,10.27L11.15,9.33L12,9.27M14.38,18.22C14.71,18.45 15.07,18.62 15.47,18.73L12.63,15.9C12.92,16.82 13.53,17.65 14.38,18.22M19.21,14.66C19.21,10.89 15.96,7.83 11.96,7.83C11.26,7.83 10.58,7.93 9.93,8.11L9.12,7.3C10,7 10.97,6.82 11.96,6.82C16.5,6.82 20.21,10.33 20.21,14.65C20.21,15.65 19.69,16.53 18.89,17.06L18.17,16.34C18.79,16 19.21,15.38 19.21,14.66Z" /></svg>
